inst/assets/svg/wi-night-snow.svg

<?xml version="1.0" encoding="UTF-8"?>
<svg xmlns="http://www.w3.org/2000/svg" xmlns:xlink="http://www.w3.org/1999/xlink" width="30pt" height="30pt" viewBox="0 0 30 30" version="1.1">
<g id="surface781">
<path style=" stroke:none;fill-rule:nonzero;fill:rgb(0%,0%,0%);fill-opacity:1;" d="M 4.230469 16.890625 C 4.230469 18.21875 4.699219 19.371094 5.628906 20.328125 C 6.558594 21.289063 7.699219 21.800781 9.03125 21.859375 C 9.148438 21.859375 9.210938 21.800781 9.210938 21.691406 L 9.210938 20.351563 C 9.210938 20.238281 9.148438 20.179688 9.03125 20.179688 C 8.171875 20.128906 7.441406 19.789063 6.839844 19.148438 C 6.238281 18.511719 5.941406 17.761719 5.941406 16.890625 C 5.941406 16.058594 6.21875 15.339844 6.789063 14.71875 C 7.359375 14.109375 8.058594 13.75 8.890625 13.648438 L 9.421875 13.609375 C 9.550781 13.609375 9.621094 13.550781 9.621094 13.429688 L 9.691406 12.890625 C 9.800781 11.808594 10.25 10.898438 11.058594 10.171875 C 11.871094 9.441406 12.820313 9.070313 13.910156 9.070313 C 15 9.070313 15.949219 9.441406 16.769531 10.171875 C 17.589844 10.898438 18.050781 11.808594 18.171875 12.890625 L 18.25 13.460938 C 18.25 13.578125 18.308594 13.648438 18.421875 13.648438 L 20.039063 13.648438 C 20.949219 13.648438 21.71875 13.96875 22.371094 14.601563 C 23.011719 15.230469 23.339844 16 23.339844 16.878906 C 23.339844 17.738281 23.039063 18.488281 22.429688 19.128906 C 21.820313 19.769531 21.089844 20.121094 20.238281 20.171875 C 20.121094 20.171875 20.050781 20.230469 20.050781 20.339844 L 20.050781 21.679688 C 20.050781 21.789063 20.109375 21.851563 20.238281 21.851563 C 21.578125 21.808594 22.710938 21.300781 23.640625 20.339844 C 24.570313 19.371094 25.03125 18.21875 25.03125 16.890625 C 25.03125 16.179688 24.890625 15.511719 24.601563 14.878906 C 25.390625 13.921875 25.78125 12.808594 25.78125 11.558594 C 25.78125 10.609375 25.539063 9.730469 25.070313 8.921875 C 24.601563 8.109375 23.960938 7.46875 23.148438 7 C 22.339844 6.53125 21.46875 6.300781 20.53125 6.300781 C 18.980469 6.300781 17.679688 6.878906 16.640625 8.03125 C 15.828125 7.601563 14.929688 7.378906 13.929688 7.378906 C 12.519531 7.378906 11.261719 7.820313 10.171875 8.699219 C 9.078125 9.578125 8.371094 10.699219 8.058594 12.058594 C 6.949219 12.320313 6.039063 12.898438 5.320313 13.800781 C 4.589844 14.710938 4.230469 15.738281 4.230469 16.890625 Z M 10.621094 21.011719 C 10.621094 21.230469 10.699219 21.421875 10.859375 21.578125 C 11.03125 21.75 11.21875 21.828125 11.441406 21.828125 C 11.671875 21.828125 11.871094 21.75 12.03125 21.601563 C 12.191406 21.449219 12.269531 21.25 12.269531 21.011719 C 12.269531 20.769531 12.191406 20.578125 12.039063 20.421875 C 11.878906 20.261719 11.691406 20.191406 11.449219 20.191406 C 11.210938 20.191406 11.019531 20.269531 10.859375 20.421875 C 10.699219 20.570313 10.621094 20.769531 10.621094 21.011719 Z M 10.621094 24.640625 C 10.621094 24.878906 10.699219 25.070313 10.859375 25.21875 C 11.019531 25.378906 11.21875 25.460938 11.441406 25.460938 C 11.679688 25.460938 11.871094 25.378906 12.03125 25.230469 C 12.191406 25.070313 12.261719 24.878906 12.261719 24.640625 C 12.261719 24.398438 12.179688 24.199219 12.019531 24.039063 C 11.859375 23.878906 11.671875 23.789063 11.429688 23.789063 C 11.199219 23.789063 11 23.871094 10.839844 24.039063 C 10.679688 24.210938 10.621094 24.398438 10.621094 24.640625 Z M 13.808594 22.898438 C 13.808594 23.128906 13.890625 23.339844 14.058594 23.511719 C 14.230469 23.679688 14.421875 23.78125 14.640625 23.78125 C 14.871094 23.78125 15.070313 23.691406 15.238281 23.519531 C 15.410156 23.351563 15.488281 23.140625 15.488281 22.898438 C 15.488281 22.679688 15.410156 22.488281 15.238281 22.320313 C 15.070313 22.148438 14.871094 22.070313 14.640625 22.070313 C 14.421875 22.070313 14.230469 22.148438 14.058594 22.320313 C 13.890625 22.488281 13.808594 22.679688 13.808594 22.898438 Z M 13.808594 19.308594 C 13.808594 19.539063 13.890625 19.730469 14.050781 19.890625 C 14.210938 20.050781 14.410156 20.128906 14.640625 20.128906 C 14.878906 20.128906 15.078125 20.050781 15.238281 19.890625 C 15.398438 19.730469 15.488281 19.539063 15.488281 19.300781 C 15.488281 19.058594 15.410156 18.871094 15.238281 18.699219 C 15.070313 18.53125 14.871094 18.449219 14.640625 18.449219 C 14.410156 18.449219 14.21875 18.53125 14.050781 18.699219 C 13.878906 18.871094 13.808594 19.078125 13.808594 19.308594 Z M 13.808594 26.578125 C 13.808594 26.808594 13.890625 27.011719 14.058594 27.179688 C 14.230469 27.351563 14.421875 27.429688 14.648438 27.429688 C 14.878906 27.429688 15.078125 27.351563 15.25 27.179688 C 15.421875 27.011719 15.5 26.808594 15.5 26.578125 C 15.5 26.359375 15.421875 26.171875 15.25 26 C 15.078125 25.828125 14.878906 25.75 14.648438 25.75 C 14.429688 25.75 14.238281 25.828125 14.070313 26 C 13.898438 26.171875 13.808594 26.359375 13.808594 26.578125 Z M 17.050781 21.011719 C 17.050781 21.21875 17.128906 21.410156 17.289063 21.578125 C 17.460938 21.75 17.660156 21.828125 17.890625 21.828125 C 18.121094 21.828125 18.320313 21.75 18.480469 21.601563 C 18.640625 21.441406 18.71875 21.25 18.71875 21.011719 C 18.71875 20.769531 18.640625 20.578125 18.488281 20.421875 C 18.328125 20.261719 18.140625 20.191406 17.898438 20.191406 C 17.660156 20.191406 17.460938 20.269531 17.300781 20.421875 C 17.128906 20.570313 17.050781 20.769531 17.050781 21.011719 Z M 17.050781 24.640625 C 17.050781 24.859375 17.128906 25.058594 17.289063 25.21875 C 17.449219 25.378906 17.648438 25.460938 17.890625 25.460938 C 18.128906 25.460938 18.320313 25.378906 18.480469 25.230469 C 18.640625 25.070313 18.710938 24.878906 18.710938 24.640625 C 18.710938 24.398438 18.628906 24.199219 18.46875 24.039063 C 18.308594 23.871094 18.121094 23.789063 17.878906 23.789063 C 17.648438 23.789063 17.449219 23.871094 17.28125 24.039063 C 17.109375 24.210938 17.050781 24.398438 17.050781 24.640625 Z M 18.03125 9.019531 C 18.710938 8.339844 19.53125 8.011719 20.511719 8.011719 C 21.488281 8.011719 22.320313 8.359375 23.011719 9.050781 C 23.699219 9.738281 24.039063 10.578125 24.039063 11.570313 C 24.039063 12.160156 23.871094 12.769531 23.53125 13.410156 C 22.570313 12.449219 21.398438 11.96875 20.03125 11.96875 L 19.71875 11.96875 C 19.441406 10.800781 18.871094 9.820313 18.03125 9.019531 Z M 18.03125 9.019531 "/>
</g>
</svg>

<?xml version="1.0" encoding="utf-8"?>
<!-- Generator: Adobe Illustrator 22.0.1, SVG Export Plug-In . SVG Version: 6.00 Build 0)  -->
<svg version="1.1" id="Layer_1" xmlns="http://www.w3.org/2000/svg" xmlns:xlink="http://www.w3.org/1999/xlink" x="0px" y="0px"
	 viewBox="0 0 30 30" style="enable-background:new 0 0 30 30;" xml:space="preserve">
<path d="M4.23,16.89c0,1.33,0.47,2.48,1.4,3.44s2.07,1.47,3.4,1.53c0.12,0,0.18-0.06,0.18-0.17v-1.34c0-0.11-0.06-0.17-0.18-0.17
	c-0.86-0.05-1.59-0.39-2.19-1.03c-0.6-0.64-0.9-1.39-0.9-2.26c0-0.83,0.28-1.55,0.85-2.17c0.57-0.61,1.27-0.97,2.1-1.07l0.53-0.04
	c0.13,0,0.2-0.06,0.2-0.18l0.07-0.54c0.11-1.08,0.56-1.99,1.37-2.72c0.81-0.73,1.76-1.1,2.85-1.1c1.09,0,2.04,0.37,2.86,1.1
	c0.82,0.73,1.28,1.64,1.4,2.72l0.08,0.57c0,0.12,0.06,0.19,0.17,0.19h1.62c0.91,0,1.68,0.32,2.33,0.95c0.64,0.63,0.97,1.4,0.97,2.28
	c0,0.86-0.3,1.61-0.91,2.25c-0.61,0.64-1.34,0.99-2.19,1.04c-0.12,0-0.19,0.06-0.19,0.17v1.34c0,0.11,0.06,0.17,0.19,0.17
	c1.34-0.04,2.47-0.55,3.4-1.51c0.93-0.97,1.39-2.12,1.39-3.45c0-0.71-0.14-1.38-0.43-2.01c0.79-0.96,1.18-2.07,1.18-3.32
	c0-0.95-0.24-1.83-0.71-2.64s-1.11-1.45-1.92-1.92s-1.68-0.7-2.62-0.7c-1.55,0-2.85,0.58-3.89,1.73c-0.81-0.43-1.71-0.65-2.71-0.65
	c-1.41,0-2.67,0.44-3.76,1.32s-1.8,2-2.11,3.36c-1.11,0.26-2.02,0.84-2.74,1.74C4.59,14.71,4.23,15.74,4.23,16.89z M10.62,21.01
	c0,0.22,0.08,0.41,0.24,0.57c0.17,0.17,0.36,0.25,0.58,0.25c0.23,0,0.43-0.08,0.59-0.23s0.24-0.35,0.24-0.59
	c0-0.24-0.08-0.43-0.23-0.59c-0.16-0.16-0.35-0.23-0.59-0.23c-0.24,0-0.43,0.08-0.59,0.23C10.7,20.57,10.62,20.77,10.62,21.01z
	 M10.62,24.64c0,0.24,0.08,0.43,0.24,0.58c0.16,0.16,0.36,0.24,0.58,0.24c0.24,0,0.43-0.08,0.59-0.23c0.16-0.16,0.23-0.35,0.23-0.59
	c0-0.24-0.08-0.44-0.24-0.6s-0.35-0.25-0.59-0.25c-0.23,0-0.43,0.08-0.59,0.25S10.62,24.4,10.62,24.64z M13.81,22.9
	c0,0.23,0.08,0.44,0.25,0.61s0.36,0.27,0.58,0.27c0.23,0,0.43-0.09,0.6-0.26c0.17-0.17,0.25-0.38,0.25-0.62
	c0-0.22-0.08-0.41-0.25-0.58c-0.17-0.17-0.37-0.25-0.6-0.25c-0.22,0-0.41,0.08-0.58,0.25S13.81,22.68,13.81,22.9z M13.81,19.31
	c0,0.23,0.08,0.42,0.24,0.58s0.36,0.24,0.59,0.24c0.24,0,0.44-0.08,0.6-0.24s0.25-0.35,0.25-0.59s-0.08-0.43-0.25-0.6
	s-0.37-0.25-0.6-0.25c-0.23,0-0.42,0.08-0.59,0.25S13.81,19.08,13.81,19.31z M13.81,26.58c0,0.23,0.08,0.43,0.25,0.6
	c0.17,0.17,0.36,0.25,0.59,0.25c0.23,0,0.43-0.08,0.6-0.25c0.17-0.17,0.25-0.37,0.25-0.6c0-0.22-0.08-0.41-0.25-0.58
	c-0.17-0.17-0.37-0.25-0.6-0.25c-0.22,0-0.41,0.08-0.58,0.25C13.9,26.17,13.81,26.36,13.81,26.58z M17.05,21.01
	c0,0.21,0.08,0.4,0.24,0.57c0.17,0.17,0.37,0.25,0.6,0.25c0.23,0,0.43-0.08,0.59-0.23c0.16-0.16,0.24-0.35,0.24-0.59
	c0-0.24-0.08-0.43-0.23-0.59c-0.16-0.16-0.35-0.23-0.59-0.23c-0.24,0-0.44,0.08-0.6,0.23C17.13,20.57,17.05,20.77,17.05,21.01z
	 M17.05,24.64c0,0.22,0.08,0.42,0.24,0.58s0.36,0.24,0.6,0.24c0.24,0,0.43-0.08,0.59-0.23c0.16-0.16,0.23-0.35,0.23-0.59
	c0-0.24-0.08-0.44-0.24-0.6c-0.16-0.17-0.35-0.25-0.59-0.25c-0.23,0-0.43,0.08-0.6,0.25S17.05,24.4,17.05,24.64z M18.03,9.02
	c0.68-0.68,1.5-1.01,2.48-1.01c0.98,0,1.81,0.35,2.5,1.04s1.03,1.53,1.03,2.52c0,0.59-0.17,1.2-0.51,1.84
	c-0.96-0.96-2.13-1.44-3.5-1.44h-0.31C19.44,10.8,18.87,9.82,18.03,9.02z"/>
</svg>
